X: 22968
T: Lass Of Carracastle, The
R: reel
M: 4/4
K: Dmajor
ABdB A2 FA|(3Bcd AF GFEG|FD3 FA3|1 (3Bcd eg fddB:|2 (3Bcd eg fdd2||
faaf g2 ef|gfed cA A2|faaf g4|abag fdde|
faaf g2 ef|gfed cAAc|BABd c3e|dfag fddB||

